X:1
T:Adoramus te
T:Giacomo Antonio Perti
T:Adoramus te
T:for SATB chorus
T:©Benedetto Metastasio, 2019
T:©Benedetto Metastasio, 2019
T:©Benedetto Metastasio, 2019
T:©Benedetto Metastasio, 2019
T:©Benedetto Metastasio, 2019
T:©Benedetto Metastasio, 2019
C:Giacomo Antonio Perti
Z:©Benedetto Metastasio, 2019
%%score 1 2 3 4
L:1/8
M:4/2
K:C
V:1 treble nm="Soprano" snm="S"
V:2 treble nm="Alto" snm="A"
V:3 treble-8 nm="Tenore" snm="T"
V:4 bass nm="Basso" snm="B"
V:1
 ^G12 B4- | B4 (A2 ^G2 A8) | ^G12 B4 | A16 | ^G8 !fermata!z8 | G12 E4 | A16 | G4 G4 (c8- | %8
w: A- do-|* ra- * *|mus te|Chris-|te|A- do-|ra-|mus te Chris-|
 c4 B2 A2 B8) | c8 z4 c4 | c4 c4 A4 G2 G2 | A8 D8 | G8 C4 c4 | A2 A2 A2 B2 (c6 B2 | A8) B4 d4- | %15
w: |te et|be- ne- di- ci- mus|ti- bi|qui- a par|Sanc- tam Cru- cem tu- *|* am re-|
 d4 c4 B2 G2 (c4- | c4 B4) c4 z4 | c8 G8 | z8 d8 | G8 z4 c4 | A2 A2 A2 B2 c6 B2 | A4 G4 z4 c4- | %22
w: * de- mis- ti Mun-|* * dum|qui- a|qui-|a per|Sanc- tam Cru- cem tu- *|* am re-|
 c4 B4 A8 | ^G4 (A8 G4) | A8 z8 | z4 c8 B4 | e8 d8 | z4 d8 c4 | B4 A4 G4 A4 | z4 e8 d4 | %30
w: * de- mis-|ti Mun- *|dum|re- di-|mis- ti|re- de-|mis- ti Mun- dum|re- de-|
 c4 B4 (A6 B2 | c2 d2 e2 dc B2 A2 ^G4 | A4 B8 A2 ^G2 | A16) | !fermata!^G16 |] %35
w: mis- ti Mun- *||||dum|
V:2
 E12 E4 | E16 | E4 B,4 (E8- | E4 D2 C2 D8) | E8 !fermata!z8 | E12 G4- | G4 (F2 E2 F8) | E12 G4 | %8
w: A- do-|ra-|mus te Chris-||te|A- do-|* ra- * *|mus te|
 F16 | E4 G4 G4 G4 | A4 A2 G2 (^F4 G4- | G4 ^F4) G8 | z16 | z16 | D8 G,4 G4 | E2 E2 E2 ^F2 (G4 E4 | %16
w: Chris-|te et be- ne-|di- ci- mus ti- *|* * bi|||qui- a per|Sanc- tum Cru- cem tu- *|
 D8) E4 G4- | G4 F4 E2 C2 (G4- | G4 ^F4) G4 z4 | z8 z4 G4- | G4 F4 E8 | ^F4 G8 F4 | z4 G8 F4 | %23
w: * am re-|* de- mis- ti Mun-|* * dum|re-|* de- mis-|ti Mun- dum|re- de-|
 E4 E4 z8 | E8 A,4 A4 | E2 E2 E2 ^F2 G8- | G8 G8 | z8 z4 G4- | G4 ^F4 E8 | E8 A,8 | E16 | E16- | %32
w: mis- ti|qui- a per|Sanc- tam Cru- cem tu-|* am|re-|* de- mis-|ti Mun-|dum|Mun-|
 E16- | E16- | !fermata!E16 |] %35
w: ||dum|
V:3
 B12 ^G4 | c16 | B12 ^G4 | A16 | B8 !fermata!z8 | c12 c4 | c16 | c12 e4 | d16 | G8 z4 e4 | %10
w: A- do-|ra-|mus te|Chris-|te|A- do-|ra-|mus te|Chris-|te et|
 e4 e4 d4 d2 d2 | c8 B8 | z16 | z16 | z16 | z16 | G8 C4 c4 | A2 A2 A2 B2 (c6 B2 | A8) B4 d4- | %19
w: be- ne- di- ci- mus|ti- bi|||||qui- a per|Sanc- tus Cru- cem tu- *|* am re-|
 d4 c4 B4 e4 | c16 | d8 c8 | d8 z4 d4- | d4 c4 B8 | c4 e8 d4 | c4 A4 z4 d4- | d4 c8 B4 | A8 G8 | %28
w: * de mis- ti|Mun-||dum re-|* de- mis-|ti re- de-|mis- ti re-|* de- *|mis- ti|
 z4 d8 c4 | (B8 c2) B2 (A4- | A4 ^G4 A2 B2 c2 d2 | e4 A4 ^G2 A2 B4 | E4 e2 d2 c8 | c16) | %34
w: re- de-|mis- * ti Mun-|||||
 !fermata!c16 |] %35
w: dum|
V:4
 E,12 E,4 | A,,16 | E,12 E,4 | F,16 | E,8 z8 | C,12 C,4 | F,,16 | C,12 C,4 | D,16 | C,8 z4 C4 | %10
w: A- do-|ra-|mus te|Chris-|te|A- do-|ra-|mus te|Chris-|te et|
 C4 C4 C4 B,2 B,2 | A,8 G,8 | z16 | z16 | z16 | z16 | z16 | z16 | D,8 G,,4 G,4 | %19
w: be- ne- di- ci- mus|ti- bi|||||||qui- a per|
 E,2 E,2 E,2 ^F,2 (G,4 E,4 | F,8) C,4 C4- | C4 B,4 A,8 | G,8 z8 | E,16 | %24
w: Sanc- tam Cru- cem tu- *|* am re-|* de- mis-|ti|qui-|
 A,,4 A,4 ^F,2 F,2 F,2 ^G,2 | (A,8 G,8) | C,8 z4 G,4- | G,4 ^F,4 E,8 | D,8 z4 A,4- | A,4 G,4 (F,8 | %30
w: a per Sanc- tus Cru- cem|tu- *|am re-|* de- mis-|ti re-|* de- mis-|
 E,6) D,2 (C,2 B,,2 A,,4 | A,,2 B,,2 C,2 D,2 E,6 D,2 | C,4 ^G,,4 A,,8- | A,,16) | !fermata!E,16 |] %35
w: * ti Mun- * *||||dum|

